X: 3
T: Farewell to Lissycasey
M: 6/8
L: 1/8
R: jig
K: Gmaj
|: D |\
~G2 B ~G2 B | ~G2 B ded | B^AB ~E2 D | FAG FED |
~G2 B ~G2 B | ~G2 B df/e/d | B^AB E2 D | FAF G2 :|
|: D |\
GB/c/d ~g2 a | ~f2 e ~e2 d | efd ~e2 d | ef/e/d ~B2 A |
GBd ~g3 | f2 e ~e2 d | B^AB E2 D | FAF G2 :|
